; generated by PrusaSlicer 2.5.2 on 2023-04-13 at 12:37:44 UTC


;
;
; 

; external perimeters extrusion width = 0.45mm
; perimeters extrusion width = 0.45mm
; infill extrusion width = 0.45mm
; solid infill extrusion width = 0.45mm
; top infill extrusion width = 0.40mm
; support material extrusion width = 0.35mm
; first layer extrusion width = 0.42mm

; external perimeters extrusion width = 0.45mm
; perimeters extrusion width = 0.45mm
; infill extrusion width = 0.45mm
; solid infill extrusion width = 0.45mm
; top infill extrusion width = 0.40mm
; support material extrusion width = 0.35mm
; first layer extrusion width = 0.42mm

M73 P0 R49
M73 Q0 S49
M201 X1000 Y1000 Z200 E5000 ; sets maximum accelerations, mm/sec^2
M203 X200 Y200 Z12 E120 ; sets maximum feedrates, mm / sec
M204 P1250 R1250 T1250 ; sets acceleration (P, T) and retract acceleration (R), mm/sec^2
M205 X8.00 Y8.00 Z0.40 E4.50 ; sets the jerk limits, mm/sec
M205 S0 T0 ; sets the minimum extruding and travel feed rate, mm/sec
M107
;TYPE:Custom
M862.3 P "MK3SMMU2S" ; printer model check
M862.1 P0.4 ; nozzle diameter check
M115 U3.12.2 ; tell printer latest fw version
G90 ; use absolute coordinates
M83 ; extruder relative mode
M104 S215 ; set extruder temp
M140 S60 ; set bed temp
Tx
M190 S60 ; wait for bed temp
M109 S215 ; wait for extruder temp
G28 W ; home all without mesh bed level
G80 ; mesh bed leveling

;go outside print area
G1 Y-3 F1000
G1 Z0.4 F1000
; select extruder
Tc
; purge line
G1 X55 F2000
G1 Z0.3 F1000
G92 E0
G1 X240 E25 F2200
G1 Y-2 F1000
G1 X55 E25 F1400
G1 Z0.2 F1000
G1 X5 E4 F1000

M221 S95
G92 E0

; Don't change E values below. Excessive value can damage the printer.
M907 E430 ; set extruder motor current
G21 ; set units to millimeters
G90 ; use absolute coordinates
M83 ; use relative distances for extrusion
M900 K0.05 ; Filament gcode LA 1.5
M900 K30 ; Filament gcode LA 1.0
M107
;LAYER_CHANGE
;Z:0.2
;HEIGHT:0.2
;BEFORE_LAYER_CHANGE
G92 E0.0
;0.2


G1 E-.8 F2100
G1 Z.4 F720
;AFTER_LAYER_CHANGE
;0.2
G1 X91.871 Y73.327 F10800
G1 Z.2 F720
G1 E.8 F2100
M204 S800
;TYPE:Skirt/Brim
;WIDTH:0.42
G1 F1200
G1 X92.646 Y72.685 E.03157
G1 X93.285 Y72.35 E.02261
G1 X94.04 Y72.114 E.02479
G1 X94.9 Y72.023 E.02712
G1 X155.244 Y72.027 E1.89204
G1 X155.957 Y72.114 E.02252
M73 P0 R48
G1 X156.712 Y72.348 E.02479
G1 X157.35 Y72.683 E.02261
G1 X157.973 Y73.171 E.02479
G1 X158.452 Y73.71 E.02261
G1 X158.861 Y74.387 E.02479
G1 X159.117 Y75.061 E.02261
G1 X159.258 Y75.809 E.02386
G1 X162.769 Y123.713 E1.50603
G1 X162.775 Y136.738 E.40838
G1 X162.384 Y138.045 E.04278
G1 X160.864 Y139.069 E.05744
G1 X148.809 Y141.433 E.38518
G1 X101.191 Y141.433 E1.49304
G1 X100.011 Y141.119 E.03828
G1 X93.223 Y137.238 E.24517
G1 X92.659 Y136.803 E.02232
G1 X87.824 Y131.363 E.22821
G1 X87.225 Y129.784 E.05294
M73 P1 R48
G1 X87.235 Y114.4 E.48236
M73 Q1 S49
G1 X90.746 Y75.769 E1.21625
G1 X90.882 Y75.064 E.0225
G1 X91.138 Y74.39 E.02261
G1 X91.836 Y73.376 E.0386
M204 S1000
; printing object Bottom_00_BTC.stl id:0 copy 0
;WIPE_START
G1 F8640
G1 X92.646 Y72.685 E-.24584
G1 X93.285 Y72.35 E-.16652
G1 X94.04 Y72.114 E-.18256
G1 X94.751 Y72.039 E-.16508
;WIPE_END
G1 E-.04 F2100
G1 Z.6 F720
G1 X116.36 Y108.72 F10800
G1 Z.2 F720
G1 E.8 F2100
M204 S800
;TYPE:Support material
G1 F1200
G1 X101.191 Y108.72 E.47561
G1 X101.191 Y105.344 E.10584
G1 X116.36 Y105.344 E.47561
G1 X116.36 Y108.663 E.10407
M204 S1000
G1 X115.783 Y108.55 F10800
M204 S800
G1 F1200
G1 X115.783 Y105.684 E.08988
G1 X115.364 Y105.684 E.01314
G1 X115.364 Y108.381 E.08456
G1 X114.945 Y108.381 E.01314
G1 X114.945 Y105.684 E.08456
G1 X114.526 Y105.684 E.01314
G1 X114.526 Y108.381 E.08456
G1 X114.107 Y108.381 E.01314
G1 X114.107 Y105.684 E.08456
G1 X113.688 Y105.684 E.01314
G1 X113.688 Y108.381 E.08456
G1 X113.269 Y108.381 E.01314
G1 X113.269 Y105.684 E.08456
G1 X112.85 Y105.684 E.01314
G1 X112.85 Y108.381 E.08456
G1 X112.431 Y108.381 E.01314
G1 X112.431 Y105.684 E.08456
G1 X112.012 Y105.684 E.01314
G1 X112.012 Y108.381 E.08456
G1 X111.593 Y108.381 E.01314
G1 X111.593 Y105.684 E.08456
G1 X111.174 Y105.684 E.01314
G1 X111.174 Y108.381 E.08456
G1 X110.755 Y108.381 E.01314
G1 X110.755 Y105.684 E.08456
G1 X110.336 Y105.684 E.01314
G1 X110.336 Y108.381 E.08456
G1 X109.917 Y108.381 E.01314
G1 X109.917 Y105.684 E.08456
G1 X109.498 Y105.684 E.01314
G1 X109.498 Y108.381 E.08456
G1 X109.079 Y108.381 E.01314
G1 X109.079 Y105.684 E.08456
G1 X108.66 Y105.684 E.01314
G1 X108.66 Y108.381 E.08456
G1 X108.241 Y108.381 E.01314
G1 X108.241 Y105.684 E.08456
G1 X107.822 Y105.684 E.01314
G1 X107.822 Y108.381 E.08456
G1 X107.403 Y108.381 E.01314
G1 X107.403 Y105.684 E.08456
G1 X106.984 Y105.684 E.01314
G1 X106.984 Y108.381 E.08456
G1 X106.565 Y108.381 E.01314
G1 X106.565 Y105.684 E.08456
G1 X106.146 Y105.684 E.01314
G1 X106.146 Y108.381 E.08456
G1 X105.727 Y108.381 E.01314
G1 X105.727 Y105.684 E.08456
G1 X105.308 Y105.684 E.01314
G1 X105.308 Y108.381 E.08456
G1 X104.889 Y108.381 E.01314
G1 X104.889 Y105.684 E.08456
G1 X104.47 Y105.684 E.01314
G1 X104.47 Y108.381 E.08456
G1 X104.051 Y108.381 E.01314
G1 X104.051 Y105.684 E.08456
G1 X103.632 Y105.684 E.01314
G1 X103.632 Y108.381 E.08456
G1 X103.213 Y108.381 E.01314
G1 X103.213 Y105.684 E.08456
G1 X102.794 Y105.684 E.01314
G1 X102.794 Y108.381 E.08456
G1 X102.375 Y108.381 E.01314
G1 X102.375 Y105.684 E.08456
G1 X101.956 Y105.684 E.01314
G1 X101.956 Y108.381 E.08456
G1 X101.537 Y108.381 E.01314
G1 X101.537 Y105.514 E.08988
M204 S1000
;WIPE_START
G1 F8640
G1 X101.537 Y108.381 E-.66191
G1 X101.956 Y108.381 E-.09674
G1 X101.956 Y108.375 E-.00135
;WIPE_END
G1 E-.04 F2100
G1 Z.6 F720
G1 X116.461 Y118.005 F10800
G1 Z.2 F720
G1 E.8 F2100
M204 S800
;TYPE:Support material interface
;WIDTH:0.35
G1 F1200
G1 X116.415 Y118.052 E.0017
G1 X116.414 Y118.1 E.00123
G1 X116.373 Y118.141 E.00147
G1 X116.374 Y118.225 E.00215
G1 X116.322 Y118.278 E.00191
G1 X116.32 Y118.326 E.00123
G1 X116.241 Y118.448 E.00371
G1 X116.241 Y118.493 E.00117
G1 X116.197 Y118.538 E.00159
G1 X116.197 Y125.765 E.18454
G1 X116.473 Y126.366 E.01689
M204 S1000
G1 X116.882 Y127.129 F10800
M204 S800
G1 F1200
G1 X116.75 Y126.863 E.00757
G1 X116.715 Y126.828 E.00127
G1 X116.715 Y117.482 E.23865
G1 X116.741 Y117.454 E.00098
G1 X116.739 Y117.417 E.00093
G1 X116.811 Y117.347 E.00257
G1 X116.812 Y117.303 E.00114
G1 X116.847 Y117.269 E.00126
G1 X116.849 Y117.242 E.00069
G1 X117.081 Y116.897 E.01061
G1 X117.081 Y116.854 E.00111
G1 X117.17 Y116.765 E.0032
G1 X117.17 Y116.725 E.00101
G1 X117.233 Y116.658 E.00235
G1 X117.233 Y127.618 E.27985
G1 X117.262 Y127.685 E.00186
G1 X117.329 Y127.753 E.00245
G1 X117.358 Y127.825 E.00198
G1 X117.454 Y127.927 E.00358
G1 X117.484 Y127.995 E.00191
G1 X117.599 Y128.111 E.00417
G1 X117.625 Y128.182 E.00192
G1 X117.751 Y128.305 E.0045
G1 X117.751 Y115.963 E.31513
G1 X117.902 Y115.828 E.00519
G1 X117.908 Y115.763 E.00165
G1 X118.268 Y115.4 E.01307
G1 X118.268 Y128.869 E.34391
G1 X118.624 Y129.224 E.01283
G1 X118.679 Y129.224 E.0014
G1 X118.786 Y129.332 E.00388
G1 X118.786 Y114.922 E.36795
G1 X118.972 Y114.75 E.00645
G1 X119.01 Y114.749 E.00098
G1 X119.179 Y114.58 E.00611
M204 S1000
;WIPE_START
G1 F8640
G1 X119.01 Y114.749 E-.05523
G1 X118.972 Y114.75 E-.00882
G1 X118.786 Y114.922 E-.05833
G1 X118.786 Y117.683 E-.63762
;WIPE_END
G1 E-.04 F2100
G1 Z.6 F720
G1 X121.507 Y116.325 F10800
G1 Z.2 F720
G1 E.8 F2100
M204 S800
G1 F1200
G1 X121.543 Y116.292 E.00125
G1 X121.629 Y116.266 E.00228
G1 X121.716 Y116.266 E.00221
G1 X121.893 Y116.216 E.00471
G1 X121.893 Y113.154 E.07817
G1 X121.933 Y113.114 E.00145
G1 X122.015 Y113.115 E.00209
G1 X122.126 Y113.022 E.00369
G1 X122.244 Y113.019 E.00303
G1 X122.283 Y112.98 E.00142
G1 X122.411 Y112.98 E.00326
G1 X122.411 Y116.077 E.07909
G1 X122.444 Y116.054 E.00103
G1 X122.78 Y116.027 E.00861
G1 X122.929 Y116.069 E.00395
G1 X122.929 Y112.807 E.08329
G1 X123.172 Y112.802 E.00621
G1 X123.215 Y112.759 E.00157
G1 X123.346 Y112.76 E.00334
G1 X123.394 Y112.713 E.00172
G1 X123.447 Y112.712 E.00134
G1 X123.447 Y115.821 E.07939
G1 X123.492 Y115.821 E.00117
G1 X123.573 Y115.779 E.00234
G1 X123.667 Y115.779 E.00238
G1 X123.964 Y115.694 E.0079
G1 X123.964 Y112.669 E.07723
G1 X124.013 Y112.625 E.00169
G1 X124.19 Y112.625 E.00452
G1 X124.339 Y112.581 E.00395
G1 X124.482 Y112.581 E.00367
G1 X124.482 Y115.566 E.07622
G1 X124.711 Y115.538 E.00589
G1 X124.906 Y115.595 E.00518
G1 X125 Y115.682 E.00328
G1 X125 Y112.581 E.07919
G1 X125.359 Y112.581 E.00916
M204 S1000
;WIPE_START
G1 F8640
G1 X125 Y112.581 E-.08287
G1 X125 Y115.513 E-.67713
;WIPE_END
G1 E-.04 F2100
G1 Z.6 F720
G1 X121.752 Y113.196 F10800
G1 Z.2 F720
G1 E.8 F2100
M204 S800
G1 F1200
G1 X121.67 Y113.198 E.00209
G1 X121.619 Y113.248 E.00182
G1 X121.573 Y113.248 E.00119
G1 X121.531 Y113.29 E.00152
G1 X121.446 Y113.29 E.00217
G1 X121.404 Y113.332 E.00152
G1 X121.375 Y113.333 E.00073
G1 X121.375 Y116.397 E.07825
G1 X121.214 Y116.586 E.00633
G1 X121.214 Y116.637 E.00132
G1 X121.19 Y116.674 E.00114
G1 X121.258 Y117.067 E.01017
G1 X121.375 Y117.507 E.01163
G1 X121.375 Y118.269 E.01948
G1 X121.276 Y118.269 E.00253
G1 X121.232 Y118.312 E.00158
G1 X121.166 Y118.312 E.00167
G1 X121.106 Y118.35 E.00181
G1 X120.858 Y118.405 E.00651
G1 X120.858 Y113.568 E.1235
G1 X120.794 Y113.587 E.00168
G1 X120.742 Y113.64 E.00192
G1 X120.693 Y113.641 E.00124
G1 X120.651 Y113.684 E.00153
G1 X120.543 Y113.706 E.00281
G1 X120.472 Y113.778 E.00258
G1 X120.42 Y113.778 E.00134
G1 X120.34 Y113.844 E.00265
G1 X120.34 Y118.536 E.11981
G1 X120.248 Y118.536 E.00234
G1 X120.204 Y118.573 E.00147
G1 X120.057 Y118.618 E.00392
G1 X119.936 Y118.622 E.00311
G1 X119.86 Y118.665 E.00222
G1 X119.822 Y118.668 E.00098
G1 X119.822 Y114.157 E.11518
G1 X119.761 Y114.175 E.00162
G1 X119.645 Y114.283 E.00404
G1 X119.611 Y114.28 E.00087
G1 X119.536 Y114.355 E.0027
G1 X119.491 Y114.355 E.00114
G1 X119.403 Y114.443 E.0032
G1 X119.36 Y114.443 E.00109
G1 X119.304 Y114.499 E.00201
G1 X119.304 Y129.771 E.38995
G1 X119.385 Y129.808 E.00227
G1 X119.446 Y129.869 E.00221
G1 X119.525 Y129.904 E.0022
G1 X119.623 Y130.002 E.00353
G1 X119.822 Y130.123 E.00595
G1 X119.822 Y120.079 E.25647
G1 X119.558 Y119.465 E.01705
M204 S1000
;WIPE_START
M73 Q1 S48
G1 F8640
G1 X119.822 Y120.079 E-.15415
G1 X119.822 Y122.702 E-.60585
;WIPE_END
G1 E-.04 F2100
G1 Z.6 F720
G1 X120.076 Y120.659 F10800
G1 Z.2 F720
G1 E.8 F2100
M204 S800
G1 F1200
G1 X120.34 Y120.814 E.00781
G1 X120.34 Y130.447 E.24598
G1 X120.858 Y130.705 E.01476
G1 X120.867 Y120.739 E.25446
G1 X121.323 Y120.627 E.01198
G1 X121.375 Y120.841 E.00562
G1 X121.375 Y125.804 E.12674
G1 X121.338 Y125.811 E.00098
G1 X121.148 Y126.205 E.01115
G1 X121.258 Y126.413 E.006
G1 X121.375 Y126.911 E.01307
G1 X121.375 Y130.943 E.10293
G1 X121.893 Y131.122 E.01399
G1 X121.893 Y127.786 E.08519
G1 X122.193 Y127.79 E.00765
G1 X122.411 Y127.736 E.00574
G1 X122.411 Y131.299 E.09097
G1 X122.469 Y131.3 E.00149
G1 X122.707 Y131.387 E.00647
G1 X122.827 Y131.392 E.00305
G1 X122.929 Y131.431 E.00279
G1 X122.929 Y127.603 E.09776
G1 X123.075 Y127.56 E.00388
G1 X123.221 Y127.56 E.00373
G1 X123.265 Y127.518 E.00155
G1 X123.346 Y127.518 E.00208
G1 X123.398 Y127.48 E.00164
G1 X123.447 Y127.472 E.00125
G1 X123.447 Y131.522 E.1034
G1 X123.55 Y131.564 E.00286
G1 X123.841 Y131.565 E.00742
G1 X123.964 Y131.609 E.00335
G1 X123.964 Y127.873 E.0954
G1 X123.834 Y127.367 E.01333
M204 S1000
;WIPE_START
G1 F8640
G1 X123.964 Y127.873 E-.12052
G1 X123.964 Y130.642 E-.63948
;WIPE_END
G1 E-.04 F2100
G1 Z.6 F720
G1 X124.219 Y128.817 F10800
G1 Z.2 F720
G1 E.8 F2100
M204 S800
G1 F1200
G1 X124.308 Y128.918 E.00344
G1 X124.482 Y129.019 E.00515
G1 X124.482 Y131.653 E.06724
G1 X125 Y131.653 E.01322
G1 X125 Y128.988 E.06804
G1 X125.175 Y128.943 E.00462
G1 X125.259 Y128.943 E.00213
G1 X125.359 Y128.897 E.00282
G1 X125.445 Y128.897 E.00218
G1 X125.518 Y128.86 E.0021
G1 X125.518 Y131.653 E.07132
G1 X125.704 Y131.653 E.00476
G1 X125.852 Y131.609 E.00395
G1 X126.036 Y131.6 E.00469
G1 X126.036 Y128.647 E.0754
G1 X126.137 Y128.527 E.00402
G1 X126.121 Y128.155 E.0095
G1 X126.189 Y128.343 E.0051
G1 X126.253 Y128.395 E.00211
G1 X126.317 Y128.494 E.00302
G1 X126.553 Y128.573 E.00635
G1 X126.553 Y131.522 E.07529
G1 X126.646 Y131.521 E.00235
G1 X126.69 Y131.476 E.00162
G1 X126.825 Y131.476 E.00343
G1 X126.869 Y131.431 E.0016
G1 X127.071 Y131.431 E.00516
G1 X127.071 Y128.478 E.07541
G1 X127.126 Y128.456 E.0015
G1 X127.205 Y128.456 E.00203
G1 X127.489 Y128.365 E.00762
G1 X127.589 Y128.357 E.00255
G1 X127.589 Y131.254 E.07396
G1 X127.759 Y131.254 E.00435
G1 X127.801 Y131.212 E.00152
G1 X127.892 Y131.211 E.00232
G1 X128.024 Y131.121 E.00407
G1 X128.107 Y131.121 E.00212
G1 X128.107 Y126.198 E.12569
G1 X128.482 Y126.006 E.01078
G1 X128.55 Y126 E.00174
G1 X128.625 Y125.927 E.00267
G1 X128.625 Y130.921 E.12752
G1 X128.641 Y130.904 E.00059
G1 X128.747 Y130.902 E.0027
G1 X128.91 Y130.766 E.00543
G1 X128.998 Y130.766 E.00223
G1 X129.036 Y130.727 E.00142
G1 X129.083 Y130.726 E.0012
G1 X129.142 Y130.68 E.00191
G1 X129.142 Y125.544 E.13114
G1 X129.401 Y125.285 E.00933
G1 X129.425 Y125.227 E.00162
G1 X129.582 Y125.064 E.00578
G1 X129.583 Y125.037 E.0007
M204 S1000
;WIPE_START
G1 F8640
G1 X129.582 Y125.064 E-.00634
G1 X129.425 Y125.227 E-.05223
G1 X129.401 Y125.285 E-.01463
G1 X129.142 Y125.544 E-.08438
G1 X129.142 Y128.153 E-.60242
;WIPE_END
G1 E-.04 F2100
G1 Z.6 F720
G1 X126.676 Y124.174 F10800
G1 Z.2 F720
G1 E.8 F2100
M204 S800
G1 F1200
G1 X126.724 Y124.125 E.00176
G1 X126.801 Y123.986 E.00405
G1 X126.843 Y123.864 E.00331
G1 X126.843 Y123.75 E.0029
G1 X126.79 Y123.578 E.0046
G1 X126.71 Y123.432 E.00426
G1 X126.553 Y123.344 E.00458
G1 X126.553 Y124.269 E.0236
G1 X126.438 Y124.345 E.00353
G1 X126.37 Y124.348 E.00173
G1 X126.242 Y124.45 E.00418
G1 X126.036 Y124.526 E.00562
G1 X126.036 Y123.262 E.03229
G1 X125.746 Y123.268 E.00741
G1 X125.634 Y123.307 E.00302
G1 X125.518 Y123.312 E.00297
G1 X125.518 Y124.695 E.03533
G1 X125.3 Y124.74 E.00568
G1 X125.015 Y123.626 E.02936
G1 X125 Y123.442 E.0047
M204 S1000
;WIPE_START
G1 F8640
G1 X125.015 Y123.626 E-.0425
G1 X125.3 Y124.74 E-.26553
G1 X125.518 Y124.695 E-.05141
G1 X125.518 Y123.312 E-.31949
G1 X125.634 Y123.307 E-.02682
G1 X125.746 Y123.268 E-.02733
G1 X125.862 Y123.265 E-.02692
;WIPE_END
G1 E-.04 F2100
G1 Z.6 F720
G1 X126.168 Y120.821 F10800
G1 Z.2 F720
G1 E.8 F2100
M204 S800
G1 F1200
G1 X126.397 Y120.603 E.00808
G1 X126.445 Y120.531 E.00219
G1 X126.445 Y120.464 E.00172
G1 X126.491 Y120.398 E.00205
G1 X126.496 Y120.358 E.00103
G1 X126.49 Y120.162 E.00501
G1 X126.447 Y120.032 E.00351
G1 X126.365 Y119.891 E.00417
G1 X126.257 Y119.816 E.00334
G1 X126.036 Y119.731 E.00606
G1 X126.036 Y120.892 E.02965
G1 X125.842 Y121.014 E.00584
G1 X125.751 Y121.014 E.00233
G1 X125.665 Y121.099 E.00308
G1 X125.569 Y121.145 E.00273
G1 X125.518 Y121.149 E.0013
G1 X125.518 Y119.675 E.03765
G1 X125.275 Y119.68 E.00621
G1 X125.183 Y119.711 E.00247
G1 X125 Y119.72 E.00467
G1 X125 Y121.324 E.04096
G1 X124.892 Y121.337 E.00278
G1 X124.845 Y121.369 E.00144
G1 X124.689 Y121.411 E.00413
G1 X124.586 Y121.411 E.00263
G1 X124.482 Y121.456 E.00289
G1 X124.482 Y119.834 E.04142
G1 X124.364 Y119.852 E.00305
G1 X124.31 Y119.887 E.00165
G1 X124.207 Y119.897 E.00265
G1 X124.159 Y119.935 E.00157
G1 X124.104 Y119.935 E.0014
G1 X124.228 Y120.453 E.01359
M204 S1000
;WIPE_START
G1 F8640
G1 X124.104 Y119.935 E-.12288
G1 X124.159 Y119.935 E-.01265
G1 X124.207 Y119.897 E-.01417
G1 X124.31 Y119.887 E-.02399
G1 X124.364 Y119.852 E-.01497
G1 X124.482 Y119.834 E-.02754
G1 X124.482 Y121.456 E-.37455
G1 X124.586 Y121.411 E-.02613
G1 X124.689 Y121.411 E-.0238
G1 X124.845 Y121.369 E-.03739
G1 X124.892 Y121.337 E-.01298
G1 X125 Y121.324 E-.02516
G1 X125 Y121.135 E-.04379
;WIPE_END
G1 E-.04 F2100
G1 Z.6 F720
G1 X121.63 Y121.861 F10800
G1 Z.2 F720
G1 E.8 F2100
M204 S800
G1 F1200
G1 X121.835 Y122.647 E.02076
G1 X121.893 Y122.941 E.00765
G1 X121.893 Y125.671 E.06971
G1 X121.943 Y125.668 E.00129
G1 X122.01 Y125.627 E.00199
G1 X122.12 Y125.622 E.0028
G1 X122.19 Y125.581 E.00207
G1 X122.29 Y125.581 E.00257
G1 X122.411 Y125.521 E.00345
G1 X122.409 Y124.968 E.01411
